Yaru++/actions/16/image-navigator.svg

<svg height="16" viewBox="0 0 16 16" width="16" xmlns="http://www.w3.org/2000/svg"><path d="m8-.0000001c-.4749384.7524729-.9273612 1.5189241-1.3566666 2.2983334-.4363648.8015403-.8326929 1.5886209-1.1866667 2.3616666l2.035.00167v2.83h-.025-2.8049999l.00167-2.035h-.00333a43.823578 43.823578 0 0 0 -2.3616666 1.2 52.439991 52.439991 0 0 0 -2.2983402 1.3433301 44.816332 44.816332 0 0 0 2.2983334 1.356667c.8015402.436365 1.58862.832693 2.3616666 1.186667l.00167-2.035001h2.8049999.025v.025 2.805l-2.035-.0017v.003367a43.823578 43.823578 0 0 0 1.2 2.361667 52.439991 52.439991 0 0 0 1.3433301 2.298333 44.816332 44.816332 0 0 0 1.3566668-2.298333c.4363648-.80154.8326932-1.58862 1.1866672-2.361667l-2.0350006-.0017v-2.805-.025h2.8300006l-.0017 2.035001h.0033c.799188-.376078 1.586795-.776261 2.361733-1.199968.777355-.428256 1.543713-.8761784 2.298333-1.343333-.752473-.4749385-1.518924-.9273613-2.298333-1.3566668-.80154-.4363648-1.588621-.8326929-2.361667-1.1866666l-.0017 2.035h-2.8299666v-2.83l2.0349996.00167v-.00333c-.37611-.7991282-.7762932-1.5867363-1.1999996-2.3616733-.4282567-.7773552-.8761787-1.5437134-1.3433334-2.2983334z" fill="#808080" stroke-width=".853333"/></svg>

<?xml version="1.0" encoding="UTF-8" standalone="no"?>
<svg
   xmlns:dc="http://purl.org/dc/elements/1.1/"
   xmlns:cc="http://creativecommons.org/ns#"
   xmlns:rdf="http://www.w3.org/1999/02/22-rdf-syntax-ns#"
   xmlns:svg="http://www.w3.org/2000/svg"
   xmlns="http://www.w3.org/2000/svg"
   xmlns:sodipodi="http://sodipodi.sourceforge.net/DTD/sodipodi-0.dtd"
   xmlns:inkscape="http://www.inkscape.org/namespaces/inkscape"
   width="16"
   height="16"
   version="1.1"
   viewBox="0 0 16 16"
   id="svg7"
   sodipodi:docname="cards-deal.svg"
   inkscape:version="0.92.4 (5da689c313, 2019-01-14)">
  <metadata
     id="metadata11">
    <rdf:RDF>
      <cc:Work
         rdf:about="">
        <dc:format>image/svg+xml</dc:format>
        <dc:type
           rdf:resource="http://purl.org/dc/dcmitype/StillImage" />
        <dc:title></dc:title>
      </cc:Work>
    </rdf:RDF>
  </metadata>
  <sodipodi:namedview
     pagecolor="#ffffff"
     bordercolor="#666666"
     borderopacity="1"
     objecttolerance="10"
     gridtolerance="10"
     guidetolerance="10"
     inkscape:pageopacity="0"
     inkscape:pageshadow="2"
     inkscape:window-width="1920"
     inkscape:window-height="1016"
     id="namedview9"
     showgrid="false"
     inkscape:zoom="52.4375"
     inkscape:cx="8"
     inkscape:cy="6.4743743"
     inkscape:window-x="0"
     inkscape:window-y="27"
     inkscape:window-maximized="1"
     inkscape:current-layer="svg7" />
  <defs
     id="defs3">
    <style
       id="current-color-scheme"
       type="text/css">
   .ColorScheme-Text { color:#808080; }
  </style>
  </defs>
  <path
     style="fill:#808080;fill-opacity:1;stroke-width:0.85333335"
     d="M 8,-1e-7 C 7.5250616,0.7524728 7.0726388,1.518924 6.6433334,2.2983333 6.2069686,3.0998736 5.8106405,3.8869542 5.4566667,4.6599999 l 2.035,0.00167 v 2.83 h -0.025 -2.8049999 l 0.00167,-2.035 h -0.00333 a 43.823578,43.823578 0 0 0 -2.3616666,1.2 A 52.439991,52.439991 0 0 0 0,8 44.816332,44.816332 0 0 0 2.2983334,9.356667 C 3.0998736,9.793032 3.8869534,10.18936 4.66,10.543334 L 4.66167,8.508333 h 2.8049999 0.025 v 0.025 2.805 l -2.035,-0.0017 V 11.34 a 43.823578,43.823578 0 0 0 1.2,2.361667 A 52.439991,52.439991 0 0 0 8,16 44.816332,44.816332 0 0 0 9.3566668,13.701667 C 9.7930316,12.900127 10.18936,12.113047 10.543334,11.34 L 8.5083334,11.3383 v -2.805 -0.025 h 2.8300006 l -0.0017,2.035001 h 0.0033 C 12.139122,10.167223 12.926729,9.76704 13.701667,9.343333 14.479022,8.915077 15.24538,8.4671546 16,8 15.247527,7.5250615 14.481076,7.0726387 13.701667,6.6433332 12.900127,6.2069684 12.113046,5.8106403 11.34,5.4566666 l -0.0017,2.035 H 8.5083334 v -2.83 l 2.0349996,0.00167 v -0.00333 C 10.167223,3.8608784 9.7670398,3.0732703 9.3433334,2.2983333 8.9150767,1.5209781 8.4671547,0.7546199 8,-1e-7 Z"
     id="path5"
     inkscape:connector-curvature="0" />
</svg>
